src/lib/images/icons/github.svg

<svg viewBox="0 0 256 256" fill="none" xmlns="http://www.w3.org/2000/svg">
<path d="M256 131.206C256 159.793 247.861 185.505 231.583 208.34C215.306 231.176 194.278 246.979 168.5 255.749C165.5 256.318 163.306 255.92 161.917 254.553C160.528 253.186 159.833 251.478 159.833 249.428V213.38C159.833 202.333 156.944 194.246 151.167 189.121C157.5 188.437 163.194 187.412 168.25 186.046C173.306 184.679 178.528 182.458 183.917 179.383C189.306 176.308 193.806 172.521 197.417 168.022C201.028 163.523 203.972 157.544 206.25 150.084C208.528 142.624 209.667 134.053 209.667 124.372C209.667 110.591 205.278 98.8599 196.5 89.1789C200.611 78.8146 200.167 67.1974 195.167 54.3274C192.056 53.3023 187.556 53.9288 181.667 56.2066C175.778 58.4845 170.667 60.9902 166.333 63.7236L160 67.8238C149.667 64.8626 139 63.382 128 63.382C117 63.382 106.333 64.8626 96 67.8238C94.2222 66.571 91.8611 65.0334 88.9167 63.2111C85.9722 61.3888 81.3333 59.1964 75 56.6337C68.6667 54.0711 63.8889 53.3023 60.6667 54.3274C55.7778 67.1974 55.3889 78.8146 59.5 89.1789C50.7222 98.8599 46.3333 110.591 46.3333 124.372C46.3333 134.053 47.4722 142.595 49.75 149.998C52.0278 157.401 54.9444 163.381 58.5 167.937C62.0556 172.492 66.5278 176.308 71.9167 179.383C77.3056 182.458 82.5278 184.679 87.5833 186.046C92.6389 187.412 98.3333 188.437 104.667 189.121C100.222 193.221 97.5 199.087 96.5 206.717C94.1667 207.856 91.6667 208.711 89 209.28C86.3333 209.85 83.1667 210.134 79.5 210.134C75.8333 210.134 72.1944 208.91 68.5833 206.461C64.9722 204.012 61.8889 200.453 59.3333 195.784C57.2222 192.139 54.5278 189.178 51.25 186.9C47.9722 184.622 45.2222 183.255 43 182.8L39.6667 182.287C37.3333 182.287 35.7222 182.543 34.8333 183.056C33.9444 183.569 33.6667 184.223 34 185.021C34.3333 185.818 34.8333 186.615 35.5 187.412C36.1667 188.21 36.8889 188.893 37.6667 189.463L38.8333 190.317C41.2778 191.456 43.6944 193.62 46.0833 196.809C48.4722 199.998 50.2222 202.902 51.3333 205.522L53 209.451C54.4444 213.779 56.8889 217.281 60.3333 219.958C63.7778 222.634 67.5 224.343 71.5 225.083C75.5 225.823 79.3611 226.222 83.0833 226.279C86.8056 226.336 89.8889 226.136 92.3333 225.681L96.1667 224.997C96.1667 229.325 96.1944 234.394 96.25 240.202C96.3056 246.011 96.3333 249.086 96.3333 249.428C96.3333 251.478 95.6111 253.186 94.1667 254.553C92.7222 255.92 90.5 256.318 87.5 255.749C61.7222 246.979 40.6944 231.176 24.4167 208.34C8.13889 185.505 0 159.793 0 131.206C0 107.402 5.72222 85.4489 17.1667 65.3466C28.6111 45.2444 44.1389 29.3277 63.75 17.5966C83.3611 5.86554 104.778 0 128 0C151.222 0 172.639 5.86554 192.25 17.5966C211.861 29.3277 227.389 45.2444 238.833 65.3466C250.278 85.4489 256 107.402 256 131.206Z" fill="#fff"/>
</svg>

<svg fill="none" viewBox="0 0 256 256" xmlns="http://www.w3.org/2000/svg"><path d="M256 131.206c0 28.587-8.139 54.299-24.417 77.134-16.277 22.836-37.305 38.639-63.083 47.409-3 .569-5.194.171-6.583-1.196s-2.084-3.075-2.084-5.125V213.38c0-11.047-2.889-19.134-8.666-24.259 6.333-.684 12.027-1.709 17.083-3.075 5.056-1.367 10.278-3.588 15.667-6.663s9.889-6.862 13.5-11.361 6.555-10.478 8.833-17.938 3.417-16.031 3.417-25.712c0-13.781-4.389-25.512-13.167-35.193 4.111-10.364 3.667-21.982-1.333-34.852-3.111-1.025-7.611-.398-13.5 1.88-5.889 2.277-11 4.783-15.334 7.517l-6.333 4.1c-10.333-2.961-21-4.442-32-4.442s-21.667 1.48-32 4.442c-1.778-1.253-4.139-2.79-7.083-4.613-2.945-1.822-7.584-4.015-13.917-6.577-6.333-2.563-11.111-3.332-14.333-2.307-4.89 12.87-5.278 24.488-1.167 34.852-8.778 9.68-13.167 21.412-13.167 35.193 0 9.681 1.14 18.223 3.417 25.626 2.278 7.403 5.194 13.383 8.75 17.939 3.556 4.555 8.028 8.371 13.417 11.446s10.61 5.296 15.666 6.663c5.056 1.366 10.75 2.391 17.084 3.075-4.445 4.1-7.167 9.966-8.167 17.596a32.471 32.471 0 0 1-7.5 2.563c-2.667.57-5.833.854-9.5.854s-7.306-1.224-10.917-3.673c-3.61-2.449-6.694-6.008-9.25-10.677-2.11-3.645-4.805-6.606-8.083-8.884s-6.028-3.645-8.25-4.1l-3.333-.513c-2.334 0-3.945.256-4.834.769s-1.166 1.167-.833 1.965c.333.797.833 1.594 1.5 2.391a12.304 12.304 0 0 0 2.167 2.051l1.166.854c2.445 1.139 4.861 3.303 7.25 6.492 2.39 3.189 4.14 6.093 5.25 8.713L53 209.451c1.444 4.328 3.889 7.83 7.333 10.507 3.445 2.676 7.167 4.385 11.167 5.125s7.861 1.139 11.583 1.196c3.723.057 6.806-.143 9.25-.598l3.834-.684c0 4.328.027 9.397.083 15.205.056 5.809.083 8.884.083 9.226 0 2.05-.722 3.758-2.166 5.125-1.445 1.367-3.667 1.765-6.667 1.196-25.778-8.77-46.806-24.573-63.083-47.409C8.139 185.505 0 159.793 0 131.206c0-23.804 5.722-45.757 17.167-65.86C28.61 45.245 44.139 29.329 63.75 17.597 83.361 5.867 104.778 0 128 0s44.639 5.866 64.25 17.597c19.611 11.73 35.139 27.647 46.583 47.75C250.278 85.449 256 107.402 256 131.206z" fill="#fff"/></svg>
